X:578
L:1/8
M:4/4
K:F
 AG | FEFG A2 AG | FEFG A2 (3cde | f2 ge fdcA | FEFA c2 de | f2 ge fdcA | F2 FG A2 FA | 
 c2 fc dcAF | G4 F2 ||

